app/icons/coins.svg

﻿<svg xmlns="http://www.w3.org/2000/svg" xmlns:xlink="http://www.w3.org/1999/xlink" viewBox="0 0 50 50" version="1.1" width="50" height="50">
<g id="surface1">
<path style=" " d="M 35 0 C 31.039063 0 27.433594 0.570313 24.75 1.53125 C 23.40625 2.011719 22.3125 2.566406 21.46875 3.28125 C 20.625 3.996094 20 4.929688 20 6 C 20 6.199219 20.023438 6.40625 20.0625 6.59375 C 20.015625 6.722656 19.992188 6.863281 20 7 L 20 13 C 20 13.199219 20.023438 13.40625 20.0625 13.59375 C 20.015625 13.722656 19.992188 13.863281 20 14 L 20 17.3125 C 18.433594 17.105469 16.757813 17 15 17 C 11.039063 17 7.433594 17.570313 4.75 18.53125 C 3.40625 19.011719 2.3125 19.566406 1.46875 20.28125 C 0.625 20.996094 0 21.929688 0 23 C 0 23.199219 0.0234375 23.40625 0.0625 23.59375 C 0.015625 23.722656 -0.0078125 23.863281 0 24 L 0 30 C 0 30.199219 0.0234375 30.40625 0.0625 30.59375 C 0.015625 30.722656 -0.0078125 30.863281 0 31 L 0 37 C 0 37.199219 0.0234375 37.40625 0.0625 37.59375 C 0.015625 37.722656 -0.0078125 37.863281 0 38 L 0 44 C 0 45.070313 0.625 46.003906 1.46875 46.71875 C 2.3125 47.433594 3.40625 47.988281 4.75 48.46875 C 7.433594 49.425781 11.035156 50 15 50 C 18.964844 50 22.566406 49.425781 25.25 48.46875 C 26.59375 47.988281 27.6875 47.433594 28.53125 46.71875 C 29.375 46.003906 30 45.070313 30 44 L 30 39.6875 C 31.566406 39.894531 33.238281 40 35 40 C 38.964844 40 42.566406 39.425781 45.25 38.46875 C 46.59375 37.988281 47.6875 37.433594 48.53125 36.71875 C 49.375 36.003906 50 35.070313 50 34 L 50 28 C 50.007813 27.863281 49.984375 27.722656 49.9375 27.59375 C 49.976563 27.40625 50 27.199219 50 27 L 50 21 C 50.007813 20.863281 49.984375 20.722656 49.9375 20.59375 C 49.976563 20.40625 50 20.199219 50 20 L 50 14 C 50.007813 13.863281 49.984375 13.722656 49.9375 13.59375 C 49.976563 13.40625 50 13.199219 50 13 L 50 7 C 49.996094 6.859375 49.964844 6.722656 49.90625 6.59375 C 49.949219 6.402344 50 6.203125 50 6 C 50 4.929688 49.375 3.996094 48.53125 3.28125 C 47.6875 2.566406 46.59375 2.011719 45.25 1.53125 C 42.566406 0.570313 38.960938 0 35 0 Z M 35 2 C 38.769531 2 42.179688 2.554688 44.5625 3.40625 C 45.753906 3.832031 46.679688 4.332031 47.25 4.8125 C 47.820313 5.292969 48 5.6875 48 6 C 48 6.3125 47.820313 6.707031 47.25 7.1875 C 46.679688 7.667969 45.753906 8.167969 44.5625 8.59375 C 42.179688 9.445313 38.769531 10 35 10 C 31.230469 10 27.820313 9.445313 25.4375 8.59375 C 24.246094 8.167969 23.320313 7.667969 22.75 7.1875 C 22.179688 6.707031 22 6.3125 22 6 C 22 5.6875 22.179688 5.292969 22.75 4.8125 C 23.320313 4.332031 24.246094 3.832031 25.4375 3.40625 C 27.820313 2.554688 31.230469 2 35 2 Z M 22 9.09375 C 22.761719 9.625 23.664063 10.082031 24.75 10.46875 C 27.433594 11.429688 31.039063 12 35 12 C 38.960938 12 42.566406 11.429688 45.25 10.46875 C 46.335938 10.082031 47.238281 9.625 48 9.09375 L 48 13 C 48 13.3125 47.820313 13.707031 47.25 14.1875 C 46.679688 14.667969 45.753906 15.167969 44.5625 15.59375 C 42.179688 16.445313 38.769531 17 35 17 C 31.230469 17 27.820313 16.445313 25.4375 15.59375 C 24.246094 15.167969 23.320313 14.667969 22.75 14.1875 C 22.179688 13.707031 22 13.3125 22 13 Z M 22 16.09375 C 22.761719 16.625 23.664063 17.082031 24.75 17.46875 C 27.433594 18.429688 31.035156 19 35 19 C 38.964844 19 42.566406 18.429688 45.25 17.46875 C 46.335938 17.082031 47.238281 16.625 48 16.09375 L 48 20 C 48 20.3125 47.820313 20.707031 47.25 21.1875 C 46.679688 21.667969 45.753906 22.167969 44.5625 22.59375 C 42.179688 23.445313 38.769531 24 35 24 C 33.199219 24 31.472656 23.878906 29.90625 23.65625 C 29.90625 23.636719 29.90625 23.613281 29.90625 23.59375 C 29.949219 23.402344 30 23.203125 30 23 C 30 21.929688 29.375 20.996094 28.53125 20.28125 C 27.6875 19.566406 26.59375 19.011719 25.25 18.53125 C 24.277344 18.183594 23.183594 17.894531 22 17.65625 Z M 15 19 C 18.769531 19 22.179688 19.554688 24.5625 20.40625 C 25.753906 20.832031 26.679688 21.332031 27.25 21.8125 C 27.820313 22.292969 28 22.6875 28 23 C 28 23.3125 27.820313 23.707031 27.25 24.1875 C 26.679688 24.667969 25.753906 25.167969 24.5625 25.59375 C 22.179688 26.445313 18.769531 27 15 27 C 11.230469 27 7.820313 26.445313 5.4375 25.59375 C 4.246094 25.167969 3.320313 24.667969 2.75 24.1875 C 2.179688 23.707031 2 23.3125 2 23 C 2 22.6875 2.179688 22.292969 2.75 21.8125 C 3.320313 21.332031 4.246094 20.832031 5.4375 20.40625 C 7.820313 19.554688 11.230469 19 15 19 Z M 48 23.09375 L 48 27 C 48 27.3125 47.820313 27.707031 47.25 28.1875 C 46.679688 28.667969 45.753906 29.167969 44.5625 29.59375 C 42.179688 30.445313 38.769531 31 35 31 C 33.203125 31 31.496094 30.851563 29.9375 30.625 C 29.925781 30.625 29.917969 30.625 29.90625 30.625 C 29.910156 30.613281 29.902344 30.605469 29.90625 30.59375 C 29.949219 30.402344 30 30.203125 30 30 L 30 25.6875 C 31.558594 25.890625 33.246094 26 35 26 C 38.964844 26 42.566406 25.429688 45.25 24.46875 C 46.335938 24.082031 47.238281 23.625 48 23.09375 Z M 2 26.09375 C 2.761719 26.625 3.664063 27.082031 4.75 27.46875 C 7.433594 28.429688 11.039063 29 15 29 C 18.960938 29 22.566406 28.429688 25.25 27.46875 C 26.335938 27.082031 27.238281 26.625 28 26.09375 L 28 30 C 28 30.3125 27.820313 30.707031 27.25 31.1875 C 26.679688 31.667969 25.753906 32.167969 24.5625 32.59375 C 22.179688 33.445313 18.769531 34 15 34 C 11.230469 34 7.820313 33.445313 5.4375 32.59375 C 4.246094 32.167969 3.320313 31.667969 2.75 31.1875 C 2.179688 30.707031 2 30.3125 2 30 Z M 48 30.09375 L 48 34 C 48 34.3125 47.820313 34.707031 47.25 35.1875 C 46.679688 35.667969 45.753906 36.167969 44.5625 36.59375 C 42.179688 37.445313 38.769531 38 35 38 C 33.1875 38 31.476563 37.851563 29.90625 37.625 C 29.90625 37.613281 29.90625 37.605469 29.90625 37.59375 C 29.949219 37.402344 30 37.203125 30 37 L 30 32.6875 C 31.5625 32.894531 33.25 33 35 33 C 38.964844 33 42.566406 32.425781 45.25 31.46875 C 46.335938 31.082031 47.238281 30.625 48 30.09375 Z M 2 33.09375 C 2.761719 33.625 3.664063 34.082031 4.75 34.46875 C 7.433594 35.425781 11.035156 36 15 36 C 18.964844 36 22.566406 35.425781 25.25 34.46875 C 26.335938 34.082031 27.238281 33.625 28 33.09375 L 28 37 C 28 37.3125 27.820313 37.707031 27.25 38.1875 C 26.679688 38.667969 25.753906 39.167969 24.5625 39.59375 C 22.179688 40.445313 18.769531 41 15 41 C 11.230469 41 7.820313 40.445313 5.4375 39.59375 C 4.246094 39.167969 3.320313 38.667969 2.75 38.1875 C 2.179688 37.707031 2 37.3125 2 37 Z M 2 40.09375 C 2.761719 40.625 3.664063 41.082031 4.75 41.46875 C 7.433594 42.425781 11.035156 43 15 43 C 18.964844 43 22.566406 42.425781 25.25 41.46875 C 26.335938 41.082031 27.238281 40.625 28 40.09375 L 28 44 C 28 44.3125 27.820313 44.707031 27.25 45.1875 C 26.679688 45.667969 25.753906 46.167969 24.5625 46.59375 C 22.179688 47.445313 18.769531 48 15 48 C 11.230469 48 7.820313 47.445313 5.4375 46.59375 C 4.246094 46.167969 3.320313 45.667969 2.75 45.1875 C 2.179688 44.707031 2 44.3125 2 44 Z "/>
</g>
</svg>

<?xml version="1.0" encoding="utf-8"?>
<!-- Generator: Adobe Illustrator 17.0.0, SVG Export Plug-In . SVG Version: 6.00 Build 0)  -->
<!DOCTYPE svg PUBLIC "-//W3C//DTD SVG 1.1//EN" "http://www.w3.org/Graphics/SVG/1.1/DTD/svg11.dtd">
<svg version="1.1" id="Layer_1" xmlns="http://www.w3.org/2000/svg" xmlns:xlink="http://www.w3.org/1999/xlink" x="0px" y="0px"
	 width="50px" height="50px" viewBox="0 0 50 50" enable-background="new 0 0 50 50" xml:space="preserve">
<path d="M50,6c0-1.07-0.625-2.004-1.469-2.719s-1.938-1.27-3.281-1.75C42.566,0.57,38.961,0,35,0s-7.566,0.57-10.25,1.531
	c-1.344,0.48-2.438,1.035-3.281,1.75S20,4.93,20,6c0,0.199,0.023,0.406,0.063,0.594C20.016,6.723,19.992,6.863,20,7v6
	c0,0.199,0.023,0.406,0.063,0.594C20.016,13.723,19.992,13.863,20,14v3.313C18.434,17.105,16.758,17,15,17
	c-3.961,0-7.566,0.57-10.25,1.531c-1.344,0.48-2.438,1.035-3.281,1.75S0,21.93,0,23c0,0.199,0.023,0.406,0.063,0.594
	C0.016,23.723-0.008,23.863,0,24v6c0,0.199,0.023,0.406,0.063,0.594C0.016,30.723-0.008,30.863,0,31v6
	c0,0.199,0.023,0.406,0.063,0.594C0.016,37.723-0.008,37.863,0,38v6c0,1.07,0.625,2.004,1.469,2.719s1.938,1.27,3.281,1.75
	C7.434,49.426,11.035,50,15,50s7.566-0.574,10.25-1.531c1.344-0.48,2.438-1.035,3.281-1.75S30,45.07,30,44v-4.313
	C31.566,39.895,33.238,40,35,40c3.965,0,7.566-0.574,10.25-1.531c1.344-0.48,2.438-1.035,3.281-1.75S50,35.07,50,34v-6
	c0.008-0.137-0.016-0.277-0.063-0.406C49.977,27.406,50,27.199,50,27v-6c0.008-0.137-0.016-0.277-0.063-0.406
	C49.977,20.406,50,20.199,50,20v-6c0.008-0.137-0.016-0.277-0.063-0.406C49.977,13.406,50,13.199,50,13V7
	c-0.004-0.141-0.035-0.277-0.094-0.406C49.949,6.402,50,6.203,50,6z M28,44c0,0.313-0.18,0.707-0.75,1.188s-1.496,0.98-2.688,1.406
	C22.18,47.445,18.77,48,15,48s-7.18-0.555-9.563-1.406c-1.191-0.426-2.117-0.926-2.688-1.406S2,44.313,2,44v-3.906
	c0.762,0.531,1.664,0.988,2.75,1.375C7.434,42.426,11.035,43,15,43s7.566-0.574,10.25-1.531c1.086-0.387,1.988-0.844,2.75-1.375V44z
	 M28,37c0,0.313-0.18,0.707-0.75,1.188s-1.496,0.98-2.688,1.406C22.18,40.445,18.77,41,15,41s-7.18-0.555-9.563-1.406
	c-1.191-0.426-2.117-0.926-2.688-1.406S2,37.313,2,37v-3.906c0.762,0.531,1.664,0.988,2.75,1.375C7.434,35.426,11.035,36,15,36
	s7.566-0.574,10.25-1.531c1.086-0.387,1.988-0.844,2.75-1.375V37z M28,30c0,0.313-0.18,0.707-0.75,1.188s-1.496,0.98-2.688,1.406
	C22.18,33.445,18.77,34,15,34s-7.18-0.555-9.563-1.406c-1.191-0.426-2.117-0.926-2.688-1.406S2,30.313,2,30v-3.906
	c0.762,0.531,1.664,0.988,2.75,1.375C7.434,28.43,11.039,29,15,29s7.566-0.57,10.25-1.531c1.086-0.387,1.988-0.844,2.75-1.375V30z
	 M27.25,24.188c-0.57,0.48-1.496,0.98-2.688,1.406C22.18,26.445,18.77,27,15,27s-7.18-0.555-9.563-1.406
	c-1.191-0.426-2.117-0.926-2.688-1.406S2,23.313,2,23s0.18-0.707,0.75-1.188s1.496-0.98,2.688-1.406C7.82,19.555,11.23,19,15,19
	s7.18,0.555,9.563,1.406c1.191,0.426,2.117,0.926,2.688,1.406S28,22.688,28,23S27.82,23.707,27.25,24.188z M48,34
	c0,0.313-0.18,0.707-0.75,1.188s-1.496,0.98-2.688,1.406C42.18,37.445,38.77,38,35,38c-1.813,0-3.523-0.148-5.094-0.375
	c0-0.012,0-0.02,0-0.031C29.949,37.402,30,37.203,30,37v-4.313C31.563,32.895,33.25,33,35,33c3.965,0,7.566-0.574,10.25-1.531
	c1.086-0.387,1.988-0.844,2.75-1.375V34z M48,27c0,0.313-0.18,0.707-0.75,1.188s-1.496,0.98-2.688,1.406
	C42.18,30.445,38.77,31,35,31c-1.797,0-3.504-0.148-5.063-0.375c-0.012,0-0.02,0-0.031,0c0.004-0.012-0.004-0.02,0-0.031
	C29.949,30.402,30,30.203,30,30v-4.313C31.559,25.891,33.246,26,35,26c3.965,0,7.566-0.57,10.25-1.531
	c1.086-0.387,1.988-0.844,2.75-1.375V27z M48,20c0,0.313-0.18,0.707-0.75,1.188s-1.496,0.98-2.688,1.406
	C42.18,23.445,38.77,24,35,24c-1.801,0-3.527-0.121-5.094-0.344c0-0.02,0-0.043,0-0.063C29.949,23.402,30,23.203,30,23
	c0-1.07-0.625-2.004-1.469-2.719s-1.938-1.27-3.281-1.75c-0.973-0.348-2.066-0.637-3.25-0.875v-1.563
	c0.762,0.531,1.664,0.988,2.75,1.375C27.434,18.43,31.035,19,35,19s7.566-0.57,10.25-1.531c1.086-0.387,1.988-0.844,2.75-1.375V20z
	 M48,13c0,0.313-0.18,0.707-0.75,1.188s-1.496,0.98-2.688,1.406C42.18,16.445,38.77,17,35,17s-7.18-0.555-9.563-1.406
	c-1.191-0.426-2.117-0.926-2.688-1.406S22,13.313,22,13V9.094c0.762,0.531,1.664,0.988,2.75,1.375C27.434,11.43,31.039,12,35,12
	s7.566-0.57,10.25-1.531c1.086-0.387,1.988-0.844,2.75-1.375V13z M47.25,7.188c-0.57,0.48-1.496,0.98-2.688,1.406
	C42.18,9.445,38.77,10,35,10s-7.18-0.555-9.563-1.406c-1.191-0.426-2.117-0.926-2.688-1.406S22,6.313,22,6s0.18-0.707,0.75-1.188
	s1.496-0.98,2.688-1.406C27.82,2.555,31.23,2,35,2s7.18,0.555,9.563,1.406c1.191,0.426,2.117,0.926,2.688,1.406S48,5.688,48,6
	S47.82,6.707,47.25,7.188z"/>
</svg>
